!!!OTL: DA DRUNTEN IM GARTEN
!!!ARE: Europa, Mitteleuropa, Deutschland, Giessen
!!!SCT: E0009
!!!YEM: Copyright 1995, estate of Helmut Schaffrath.
**kern
*ICvox
*Ivox
*M6/8
*k[f#]
*G:
{8d
=1
8g
8g
8a
8b
8b
8a
=2
4.g
4r}
{8a
=3
4a
8b
4cc
8b
=4
4.a
4r}
{8g
=5
8b
8b
8b
16dd
16cc
16cc
16b
8a
=6
8a
8a
8dd
16b
16a
16b
16a
8g}
=7
{8g
8g
8a
8b
8b
16dd
16cc
=8
4b
8a
4g}
==
!!!AGN: Sage, Maerchen -, Zauber - Lied, Ballade ?
!!!ONB: ESAC (Essen Associative Code) Database: ERK1
!!!AMT: compound duple
!!!AIN: vox
!!!EED: Helmut Schaffrath
!!!EEV: 1.0
*-
